X:1
T:Miserere - Utendal
T:#
%%score [ 1 2 3 4 ]
L:1/8
Q:1/4=180
M:none
K:F
V:1 treble nm="Soprano" snm="S"
V:2 treble nm="Alto" snm="A"
V:3 treble-8 nm="Tenor" snm="T"
V:4 bass nm="Bass" snm="B"
V:1
"^Miserere""^Alexander Utendal\n(1543-1581)""^Prima pars" z8 A8- | A4 A4 A4 A4 | B4 A4 (d8- | %3
w: Mi\-|* se- re- re|me- i De\-|
 d4 ^c2 =B2 c8- | c8) d8 | z4 A8 A4 |[M:4/2] A4 A4 B4 (A4- | A2 G2 A2 B2 c4) (B4- | %8
w: |* us,|mi- se-|re- re me- i|* * * * * De\-|
 B2 G2 c6 =BA B4) | c4 A4 B8 | A4 (A6 G2 F2 E2 | F2 ED E4) D4 D4 | F4 E8 F4 | G4 B4 B4 c4- | %14
w: |us: se- cun-|dum ma\- * * *|* * * * gnam, se-|cun- dum ma-|gnam mi- se- ri\-|
 c4 d6 d2 d4 | ^c8 c8 | z8 z4 d4- | d4 d4 (c6 B2) | (A2 G2 A4) G8 | (A6 G2 F4) E4 | F6 F2 E8 | %21
w: * cor- di- am|tu- am.|Et|* se- cun\- *|* * * dum|mul\- * * ti-|tu- di- nem|
 z16 | z16 | z8 z4 F4- | F4 E4 (F6 G2 | A4) G4 A8 | G4 A4 B8- | B8 A4 A4 | G8 G8 | G8 A8 | %30
w: ||mi\-|* se- ra\- *|* ti- o-|num tu- a\-|* rum, tu-|a- rum:|de- le,|
 z4 d4 B4 d4 | d12 d4 | B4 A8 G4 | A8 z8 | z8 z4 d4- | d2 d2 d4 c4 B4 | A8 z4 A4- | A4 G4 A6 E2 | %38
w: de- le i-|ni- qui-|ta- tem me-|am.|Am\-|* pli- us la- va|me ab|* i- ni- qui-|
 F4 G4 E8 | F8 z4 F4- | F4 E4 (F6 G2 | A4) G4 A4 c4 | c8 c4 (c4- | c2 A2 d6 c2 c4- | %44
w: ta- te me-|a, ab|* i- ni\- *|* qui- ta- te|me- a, me\-||
 c2 =BA !courtesy!=B4) c4 G4 | A4 A2 A4 G2 B4 | A8 d8- | d4 d4 ^c8 | z4 c6 c2 c4 | c16 | %50
w: * * * * a: et|a pec- ca- to me-|o mun\-|* da me.|Quo- ni- am|i-|
 d4 B4 B4 A4 | G8 ^F4 A4 | (G2 A2 B2 G2 A6) c2 | B4 G4 z4 A4 | (G2 A2 B2 G2 A6) G2 | F16 | %56
w: ni- qui- ta- tem|me- am e-|go * * * * co-|gno- sco, e-|go * * * * co-|gno-|
 E4 E8 F4 | G8 (A6 B2 | c2 d2 c8 =B2 A2) | =B4 c4 d6 D2 | E8 F6 D2 | G4 A4 z4 A4 | =B4 c8 B4 | %63
w: sco: et pec-|ca- tum *||* me- um, con-|tra me est|sem- per, et|pec- ca- tum|
 c8 d4 G4- | G4 A4 A4 B4 | c4 A4 z4 d4- | d4 ^c4[Q:1/4=178] d4[Q:1/4=176] d4 |[Q:1/4=171] A16- | %68
w: me- um, et|* pec- ca- tum|me- um, con\-|* tra me est|sem\-|
[Q:1/4=163] A16 |[Q:1/4=160] A16 ||"^Secunda pars" z16 | z4 A8 A4 | G8 F4 B4 | (A2 G2 A6 B2 c4- | %74
w: |per.||Ti- bi|so- li pec-|ca\- * * * *|
 c2 BA B4) A8 | z4 E8 E4 | G8 A4 A4- | (A2 G2 A2 B2 c4) (A4- | A2 GF G4) A8- | A4 G4 G8 | G8 z8 | %81
w: * * * * vi,|ti- bi|so- li pec\-|* * * * * ca\-|* * * * vi,|* pec- ca-|vi,|
 z16 | G8 F4 F4 | A8 G4 G4 | B8 A8 | z4 d4 d4 d4 | (c2 B2 A2 G2 A8) | (D2 E2 F2 G2 A2 B2 c4- | %88
w: |et ma- lum|co- ram te|fe- ci,|et ma- lum|co\- * * * *|ram * * * * * *|
 c4) c4 d8 | d8 z8 | G8 G4 G4 | (F2 E2 D2 C2 D2 E2 F2 G2 | A12) G4 | (A2 B2 c2 B2 A2 G2 A4-) | %94
w: * te fe-|ci,|et ma- lum|co\- * * * * * * *|* ram|te * * * * * *|
 A4 G4 A8 | A8 =B4 c4- | c4 A4 G8 | ^F8 A6 A2 | A4 A4 A8 | D8 A4 A4 | c8 (B6 c2) | d12 c4 | %102
w: * fe- ci:|ut ju- sti\-|* fi- ce-|ris in ser-|mo- ni- bus|tu- is, et|vin- cas *|* cum|
 d4 c8 (B4- | B2 A2 A6 GF G4) | F4 F8 E4 | G8 F4 d4- | d4 c4 B6 A2 | G4 A4 G4 G4 | G4 B4 A8 | z16 | %110
w: ju- di- ca\-||ris. Ec- ce|e- nim in|* i- ni- qui-|ta- ti- bus con-|ce- ptus sum,||
 z4 B8 B4 | A8 G4 A4- | A4 G4 F4 F4 | E6 E2 G4 d4- | d4 d8 ^c4 | ^c8 z8 | z16 | z4 A4 A4 B4 | %118
w: ec- ce|e- nim in|* i- ni- qui-|ta- ti- bus con\-|* ce- ptus|sum:||et in pec-|
 c8 A4 A4 | F4 F4 D4 F4- | F4 E4 (F2 EF G4) | A8 z8 | z4 c8 B4 | A8 A8 | G6 G2 A8 | %125
w: ca- tis con-|ce- pit me ma\-|* ter me\- * * *|a.|Ec- ce|e- nim|ve- ri- ta-|
 A4 ^F4 (G2 A2 G2 F2) | G4 G4 E8 | z8 z4 c4 | B4 A8 B4 | c4 d4 c8 | z16 | z16 | z16 | z4 G8 G4 | %134
w: tem di- le\- * * *|* xi- sti:|in-|cer- ta et|oc- cul- ta||||sa- pi-|
 A6 A2 A4 G4 | B4 A8 c4- | c4 B4 B8 | A8 (G6 F2 | E2 D2 E6 D2 E2 F2) | G8 z4 G4- | G4 G4 F6 F2 | %141
w: en- ti- ae tu-|ae ma- ni\-|* fe- sta-|sti mi\- *||hi, sa\-|* pi- en- ti-|
 E4 (c6 B2 G4) | A4 A4 A8- | A4[Q:1/4=178] A4[Q:1/4=174] B8 |[Q:1/4=168] A8[Q:1/4=162] A8 | %145
w: ae tu\- * *|ae ma- ni\-|* fe- sta-|sti mi-|
[Q:1/4=160] A16 ||"^Tertia pars" z16 | A16 | B8 B8 | B8 A6 A2 | G4 G4 (F2 G2 A2 B2) | c8 c8 | %152
w: hi.||A-|sper- ges|me Do- mi-|ne hys- so\- * * *|* po,|
 (B6 A2 G4) A4 | B8 A8 | z16 | c8 B4 A4 | G8 z4 A4 | c4 B4 A4 A4- | A4 G4 E4 F4 | G4 E4 F4 G4 | %160
w: et * * mun-|da- bor:||la- va- bis|me, la-|va- bis me, et|* su- per ni-|vem de- al- ba-|
 A8 z8 | z8 z4 d4- | d4 c4 A4 B4 | c4 c8 B4 | G4 A4 B4 A4- | A2 A2 G4 G4 B4 | B4 (B6 A2 F2 G2 | %167
w: bor,|et|* su- per ni-|vem, et su-|per ni- vem de\-|* al- ba- bor, de-|al- ba\- * * *|
 A8) A8 | z4 c8 B4 | G4 F4 c4 c4- | c2 c2 c4 A8- | A8 z4 c4 | c4 c4 B4 A4 | (G6 F2 G4) (A4- | %174
w: * bor,|et su-|per ni- vem de\-|* al- ba- bor.|* Au-|di- tu- i me-|o * * da\-|
 A2 G2 A2 F2 G2 A2 B4-) | (B2 A2 A6 GF G4) | A4 d6 B2 B2 B2 | B2 A3 A A2 z8 | %178
w: ||bis gau- di- um et|lae- ti- ti- am,|
 z2 G4 A2 (A3 B c2) d2 | e2 d4 ^c2 d4 z4 | z2 d2 ^c2 c2 d4 =B2 B2 | c2 A2 G4 A8 | z16 | z16 | %184
w: gau- di- um * * et|lae- ti- ti- am:|et ex- ul- ta- bunt, et|ex- ul- ta- bunt|||
 z8 z4 E4- | E4 F8 G4 | A4 A4 B8 | A16 | z4 d4 d4 c4 | B4 A4 (A2 GF G4) | A8 z4 D4 | A12 A4 | %192
w: os\-|* sa hu-|mi- li- a-|ta,|os- sa hu-|mi- li- a\- * * *|ta. A-|ver- te|
 A6 G2 B4 (A4- | A2 GF E2 F2 G2 A2 B2 c2 | d8) d8- | d16 | z4 A8 B4 | G4 A4 G4 (F2 G2 | %198
w: fa- ci- em tu\-||* am||a pec-|ca- tis me- is, *|
 A8) z4 A4- | A4 G4 A8 | A8 B8- | B8 A4 A4- | A4 G4 d8- | d4 d4 _e8- | e8 d4 d4 | %205
w: * a|* pec- ca-|tis me\-|* is, a|* pec- ca\-|* tis me\-|* is: et|
 (B2 A2 B2 c2 d8- | d8) ^c8 | z16 | z4 d8 c4- | c4 B8 A4- | A4 G8 F4- | F4 E4 F8 | E8 z8 | z16 | %214
w: o\- * * * *|* mnes||i- ni\-|* qui- ta\-|* tes me\-|* as de-|le,||
 z8 z4 d4- | d4[Q:1/4=178] c8[Q:1/4=175] B4 | %216
w: i\-|* ni- qui-|
[Q:1/4=173] A4[Q:1/4=171] G4[Q:1/4=169] F4[Q:1/4=167] E4 |[Q:1/4=163] D16 |[Q:1/4=160] ^C16 || %219
w: ta- tes me- as|de-|le.|
"^Quarta pars" z16 | z16 | z8 A8- | A8 B8 | G8 A8- | A4 B4 A4 A4 | B8 A8- | A8 z8 | z16 | d16 | %229
w: ||Cor|* mun-|dum cre\-|* a in me|De- us,|||cor-|
 G8 c8- | c8 c8 | d4 e4 A4 d4- | (d4 ^c2 =B2 !courtesy!^c8) | d8 z8 | z4 d4 d6 d2 | c4 F4 c8 | %236
w: mun- dum|* cre-|a in me De\-||us:|et spi- ri-|tum, re- ctum,|
 z8 z4 B4 | A6 A2 A4 (G2 A2 | B2 c2 d4) d8 | z4 c6 c2 B4 | G4 A4 A6 A2 | A4 A6 A2 G4 | %242
w: et|spi- ri- tum re\- *|* * * ctum|in- no- va|in vi- sce- ri-|bus, in- no- va|
 F4 D4 G6 F2 | E4 F4 (E8 | F12) G4 | A8 z8 | z8 z4 A4- | A4 A4 B4 G4 | c8 A8 | z4 A8 d4- | %250
w: in vi- sce- ri-|bus me- is,|* me-|is.|Ne|* pro- ji- ci-|as me|a fa\-|
 d2 d2 c4 F8 | F8 z4 D4 | d6 d2 d4 B4 | G4 (c2 B2 A2 G2 A4) | B4 A4 A6 c2 | (B2 A2 d8) ^c4 | %256
w: * ci- e tu-|a, et|spi- ri- tum san-|ctum tu\- * * * *|um ne au- fe-|ras * * a|
 d8 =B6 B2 | c4 c4 z2 d2 d3 d | ^c4 z4 z2 =c4 c2 | B4 A4 z4 z2 (d2- | dcBA B2) d4 ^c2 d4 | z16 | %262
w: me. Red- de|mi- hi lae- ti- ti-|am, red- de|mi- hi lae\-|* * * * * ti- ti- am||
 A6 B2 c2 d2 ^c4 | d8 z4 A4 | G4 c4 =B4 B4 | c4 d4 c4 A4 | B4 (A6 GF G4) | A8 ^F8 | G6 G2 G8 | %269
w: sa- lu- ta- ris tu-|i: et|spi- ri- tu prin-|ci- pa- li con-|fir- ma * * *|me, et|spi- ri- tu|
 z4 F8 F4 | F8 E4 E4 | D4 D4 ^C8 | z8 z4 D4 | d8 d8 | z4 A4 G8 | F4 F4 F4 F4 | z4 (A6 B2 c2 d2 | %277
w: prin- ci-|pa- li con-|fir- ma me.|Do-|ce- bo,|do- ce-|bo i- ni- quos|vi\- * * *|
 e4) d4 d8 | ^c8 z8 | z8 z4 A4 | c6 c2 d4 e4 | A4 A4 (c2 B2 G2 A2 | B4) B4 A8 | z8 z4 d4 | %284
w: * as tu-|as:|et|im- pi- i ad|te con- ver\- * * *|* ten- tur,|et|
 c6 c2 B4 G4 | d4 d4 c8 | B8 A8 | z16 | A8 G6 G2 | F4[Q:1/4=178] D4[Q:1/4=175] A8 | %290
w: im- pi- i ad|te con- ver-|ten- tur,||et im- pi-|i ad te|
[Q:1/4=169] A12[Q:1/4=165] A4 |[Q:1/4=162] A8[Q:1/4=160] A16 ||"^Quinta pars" z16 | z8 A8- | %294
w: con- ver-|ten- tur.||Li\-|
 A4 A4 B8 | A4 d8 c4 | c4 B4 A4 (d4- | d4 c2 B2 c2 d2 e4-) | (e2 d2 d6 ^c=B !courtesy!^c4) | %299
w: * be- ra|me de san-|gui- ni- bus De\-|||
 d8 z4 A4- | A4 A4 G8 | F8 (E6 F2 | G4) F4 G4 A4 | B4 (A6 GF G4) | A8 z4 G4 | G12 G4 | %306
w: us, li\-|* be- ra|me de *|* san- gui- ni-|bus De\- * * *|us, De-|us sa-|
 G4 G4 (A6 B2 | c4) d4 z4 B4 | A6 F2 (G2 E2 A4- | A2 GF G4) A2 A2 B2 c2 | d4 d4 z2 e2 d2 c2 | %311
w: lu- tis me\- *|* ae, sa-|lu- tis me\- * *|* * * * ae: et ex- ul-|ta- bit, et ex- ul-|
 f4 e4 z2 d2 c2 A2 | B4 A4 A8- | A4 A4 B8 | A4 d8 d4- | d2 d2 d4 ^c8 | d4 A8 =B4 | =B8 c8- | %318
w: ta- bit, et ex- ul-|ta- bit lin\-|* gua me-|a ju- sti\-|* ti- am tu-|am. Do- mi-|ne la\-|
 c4 c4 c4 B4 | A4 G4 F8- | F4 E4 E8 | z8 z2 A2 A2 A2 | B4 A4 z2 A2 B2 B2 | B4 A4 G4 F4 | %324
w: * bi- a me-|a a- pe\-|* ri- es:|an- nun- ti-|a- bit, an- nun- ti-|a- bit lau- dem|
 G8 A2 A2 c2 c2 | d4 c4 z2 c2 c2 c2 | =B4 d4 G4 A4 | (c8 B8) | A16 | z16 | z16 | z16 | z16 | z16 | %334
w: tu- am, an- nun- ti-|a- bit, an- nun- ti-|a- bit lau- dem|tu\- *|am.||||||
 z4 A8 A4 | A8 z4 A4- | A4 A4 G4 G4- | G4 G4 G8 | c12 d4 | c4 B4 c8- | c8 B8- | B4 A4 A6 A2 | %342
w: Quo- ni-|am, quo\-|* ni- am, quo\-|* ni- am|si vo-|lu- is- ses|* sa\-|* cri- fi- ci-|
 A8 z4 d4- | d4 d4 c6 c2 | c4 d4 _e8 | d8 z4 A4- | A2 G2 G4 A4 A4 | B8 A8 | z16 | z4 c4 B6 A2 | %350
w: um, sa\-|* cri- fi- ci-|um, de- dis-|sem u\-|* ti- que: ho- lo-|cau- stis||non de- le-|
 G4 A4 A8 | z8 z4 d4 | c6 B2 A4 A4 | A8 F8- | F4 E4 G6 G2 | F4 B4 A8- | A8 z8 | z8 z4 d4- | %358
w: cta- be- ris,|non|de- le- cta- be-|ris. Sa\-|* cri- fi- ci-|um De- o||spi\-|
 d2 d2 c4 =B4 c4- | c4 =B4 c8- | c8 c8 | z4 c8 B4- | B4 A4 A4 G4 | z4 d8 c4- | c4 =B4 c8 | %365
w: * ri- tus con- tri\-|* bu- la\-|* tus,|con- tri\-|* bu- la- tus,|con- tri\-|* bu- la-|
 A8 z4 G4- | G4 ^F4 F8 | G8 z4 G4 | A4 c8 c4 | d16 | e16 | z16 | z4 A8 G4 | G8 F4 (F4- | %374
w: tus: cor|* con- tri-|tum et|hu- mi- li-|a-|tum||De- us|non de- spi\-|
 F4 E2 D2 E6) E2 | D8 z8 | z8 z4 d4- | d4 c4 c8 | B4 (B8 A2 G2 | A4) A4 A8 | z8 z4[Q:1/4=178] d4- | %381
w: * * * * ci-|es,|De\-|* us non|de- spi\- * *|* ci- es|De\-|
[Q:1/4=176] d4[Q:1/4=174] c4[Q:1/4=170] c8 |[Q:1/4=166] e8[Q:1/4=162] A6[Q:1/4=160] A2 | %383
w: * us non|de- spi- ci-|
[Q:1/4=160] A24 ||"^Sexta pars" A16 | B16 | A8 A8 | G6 G2 A8- | A16 | z16 | z4 A4 G4 G4 | %391
w: es.|Be-|ni-|gne fac|Do- mi- ne|||in bo- na|
 B4 B4 A8 | A4 A8 c4- | c4 B4 A4 z4 | z8 z4 A4 | d4 d4 ^c4 d4 | B12 B4 | B4 G4 A8 | ^F4 F4 F4 G4- | %399
w: vo- lun- ta-|te tu- a|* Si- on,|in|bo- na vo- lun-|ta- te|tu- a Si-|on: ut ae- di\-|
 G4 A8 =B4 | c4 c8 (B4- | B2 A2 A8) G4 | A6 A2 B8 | z16 | z4 B8 A4 | B8 (A6 B2 | c4) c4 d8 | z16 | %408
w: * fi- cen-|tur mu- ri|* * * Je-|ru- sa- lem,||Mu- ri|Je- ru\- *|* sa- lem.||
 z4 e4 d4 d4 | f8 e8 | z4 e8 ^c4 | d6 d2 =B4 (c4- | c2 B2 A2 GA B4) A4- | A4 G4 ^F8 | z4 A4 A4 A4 | %415
w: Tunc ac- ce-|pta- bis|sa- cri-|fi- ci- um ju\-|* * * * * * sti\-|* ti- ae,|ob- la- ti-|
 c8 =B8 | z4 c8 c4 | B8 G8 | A8 z4 c4- | c4 A4 B8 | G8 z4[Q:1/4=178] c4 | %421
w: o- nes,|et ho-|lo- cau-|sta: tunc|* im- po-|nent su-|
[Q:1/4=175] c4[Q:1/4=172] c4[Q:1/4=168] B8- | %422
w: per al- ta\-|
[Q:1/4=164] B4[Q:1/4=161] A4[Q:1/4=158] B4[Q:1/4=156] c4 | %423
w: * re tu- um|
[Q:1/4=153] d6[Q:1/4=150] d2[Q:1/4=150] ^c8 ||[M:3/1] x24 | %425
w: vi- tu- los,||
[M:3/1][Q:1/4=400][Q:1/4=400][Q:1/4=400][Q:1/4=400] A16 =B8 | c16 c8 | G8 G8 G8 | (A12 B4 c8) | %429
w: tunc im-|po- nent|su- per al-|ta\- * *|
 =B8 d16 | c8 (c12 B4 | A16) G8 | A16 z8 | A8 A8 A8 | B16 A8 | c8[Q:1/4=393] (c12[Q:1/4=386] B4 | %436
w: re tu-|um vi\- *|* tu-|los,|su- per al-|ta- re|tu- um *|
[Q:1/4=382] A4[Q:1/4=378] G4[Q:1/4=368] A16) |[Q:1/4=354] A16[Q:1/4=343] A8 |[Q:1/4=340] A24 |] %439
w: |vi- tu-|los.|
V:2
 D12 D4 | D4 D4 F4 (F4- | F2 E2 F2 G2 A4) F4 | A16- | A8 (D2 E2 F2 D2 | E8) ^F8 |[M:4/2] F12 F4 | %7
w: Mi- se-|re- re me- i|* * * * * De-|us,|* De\- * * *|* us,|mi- se-|
 F4 F4 G4 G4 | G16 | E4 F4 D4 D4 | F8 F4 C4 | C6 C2 A,4 A,4 | C12 C4 | D4 G4 G4 A4 | G6 G2 A4 G4 | %15
w: re- re me- i|De-|us: se- cun- dum|ma- gnam mi-|se- ri- cor- di-|am tu-|am, mi- se- ri-|cor- di- am tu-|
 A8 z4 A4- | A4 A4 G8 | A4 A8 G4 | F6 F2 E4 E4- | E4 F4 (C8 | D6) D2 ^C8 | z4 F8 E4 | A,4 B,8 C4 | %23
w: am. Et|* se- cun-|dum mul- ti-|tu- di- nem, mul\-|* ti- tu\-|* di- nem|mi- se-|ra- ti- o-|
 B,4 A,4 (G,4 F,2 G,2) | A,16 | z8 z4 F4- | F4 E4 F4 F4 | G8 F4 F4 | D8 E4 (E4- | E2 D2 E4) F4 C4 | %30
w: num tu- a\- * *|rum,|mi\-|* se- ra- ti-|o- num tu-|a- rum: de\-|* * * le i-|
 D4 F4 G8 | (F6 G2 A8) | G4 (F8 E2 D2 | ^C2 D4 C2 D4) F4- | F2 F2 F4 E4 (D2 E2 | F2 G2 A8) G4 | %36
w: ni- qui- ta-|tem * *|me- am. * *|* * * * Am\-|* pli- us la- va *|* * * me,|
 z4 F6 F2 F4 | E4 D4 E8 | z16 | z4 C8 B,4 | C6 C2 D4 C4 | C8 C4 (A,2 B,2) | (C2 D2 E4) C4 F4 | %43
w: am- pli- us|la- va me||ab i-|ni- qui- ta- te|me- a, ab *|* * * i- ni-|
 (E2 F2 G4) A4 F4 | G8 E4 E4 | F4 F2 E4 E2 F4 | F4 (A6 G2 F2 E2 | F4) G4 A8 | A6 A2 A8 | G16 | %50
w: qui\- * * ta- te|me- a: et|a pec- ca- to me-|o mun\- * * *|* da me.|Quo- ni- am|i-|
 B4 G4 F4 F4 | D8 D4 F4 | (E2 F2 G2 E2 F6) C2 | D4 D4 z4 F4 | D2 F2 G4 C4 C4 | D4 C4 D4 C4 | C16 | %57
w: ni- qui- ta- tem|me- am e-|go * * * * co-|gno- sco, e-|go co- gno- sco, e-|go co- gno- sco:|et|
 D4 E8 F4 | G8 D8 | z4 F8 G4 | A12 F4 | E4 A,4 F8 | G4 G6 G2 G4 | E8 z4 D4 | E4 F6 A2 G4 | %65
w: pec- ca- tum|me- um,|et pec-|ca- tum|me- um con-|tra me est sem-|per, con-|tra me est sem-|
 E4 F8 G4 | A4 A,4 B,4 A,4 | z4 A,4 F8 | D4 D4 F8 | E16 || z16 | z16 | z4 D8 D4 | F8 E4 E4 | %74
w: per, con- tra|me est sem- per,|con- tra|me est sem-|per.|||Ti- bi|so- li pec-|
 G8 (F6 G2 | A4) A,4 C8 | D8 z4 D4- | D4 D4 C8 | B,4 B,4 (A,2 F,2 F4) | E16 | z4 E4 D4 D4 | %81
w: ca- vi, *|* pec- ca-|vi, ti\-|* bi so-|li pec- ca\- * *|vi,|et ma- lum|
 F4 E8 F4 | (B,6 C2 D2 C2 D2 E2) | F4 C4 z4 E4 | D4 D4 F8 | G4 G4 G8 | A4 F4 E4 E4 | G4 F4 F8 | %88
w: co- ram te|fe\- * * * * *|* ci, et|ma- lum co-|ram te fe-|ci, et ma- lum|co- ram te,|
 z4 G4 G4 G4 | (F2 E2 D2 C2 D4) F4 | _E4 (E6 D2 C4) | D4 (F8 E2 D2 | F6) G2 E8 | F8 F8- | %94
w: et ma- lum|co\- * * * * ram|te fe\- * *|ci, co\- * *|* ram te|fe- ci:|
 (F4 E2 D2 E8) | ^F8 G4 G4- | G4 =F4 E8 | D8 E6 E2 | E4 E4 F4 (F4- | F4 E2 D2) ^C8 | z16 | %101
w: |ut ju- sti\-|* fi- ce-|ris in ser-|mo- ni- bus tu\-|* * * is,||
 z4 G4 (F6 G2 | A8) G4 G4 | E4 F4 D8 | D8 z8 | z8 z4 F4- | F4 E4 G8 | D4 D4 _E8 | D4 G4 F6 F2 | %109
w: et vin\- *|* cas cum|ju- di- ca-|ris.|Ec\-|* ce e-|nim in i-|ni- qui- ta- ti-|
 E4 F4 C4 E4 | D4 G8 F4 | F8 E4 F4- | F4 E4 D4 D4 | ^C6 C2 D4 D4 | F4 G4 A8- | A16 | z8 z4 A,4 | %117
w: bus con- ce- ptus|sum, ec- ce|e- nim in|* i- ni- qui-|ta- ti- bus con-|ce- ptus sum:||et|
 A,4 A,4 D8 | C4 G4 F4 E4 | D4 A,4 B,4 F,4 | A,8 z4 D4 | E4 F4 G4 G4- | G4 F4 G8 | D8 z8 | %124
w: in pec- ca-|tis con- ce- pit|me ma- ter me-|a. Ec-|ce e- nim ve\-|* ri- ta-|tem|
 z4 C8 C4 | (F2 G2 A4) D4 D4- | D2 E2 D4 G4 G4 | F4 E4 F8- | F4 E4 F8 | G8 z4 F4- | F4 F4 F6 F2 | %131
w: di- le-|xi\- * * sti, di\-|* le- xi- sti: in-|cer- ta et|* oc- cul-|ta sa\-|* pi- en- ti-|
 E4 (F6 E2 D2 E2) | (F2 E2 G4) F4 F4- | F4 D4 E6 E2 | F4 F4 E4 E4 | F8 D4 G4- | G4 F4 G4 F4 | %137
w: ae tu\- * * *|* * * ae, sa\-|* pi- en- ti-|ae tu- ae ma-|ni- fe- sta\-|* sti mi- hi.|
 z4 E8 D4 | ^C6 C2 C4 C4 | D4 B,4 A,4 B,4 | G,8 C4 D4 | G,4 G,4 G4 E4 | F16 | E8 G8 | %144
w: sa- pi-|en- ti- ae tu-|ae ma- ni- fe-|sta- sti mi-|hi, ma- ni- fe-|sta-|sti mi-|
 F4 (D6 ^C=B, C4) | D16 || z8 F8- | F8 E8 | G8 F8 | F6 F2 F4 F4 | (E8 D8) | C4 A4 (A6 G2 | %152
w: hi, mi\- * * *|hi.|A\-|* sper-|ges me|Do- mi- ne hys-|so\- *|po, et mun\- *|
 F2 E2 D2 C2 B,4) (F4- | F2 ED E4) F8 | F8 E4 D4 | C4 E4 G4 F4 | E4 D4 F4 E4 | A4 G4 F4 E4 | %158
w: * * * * * da\-|* * * * bor:|la- va- bis|me, la- va- bis|me, et su- per|ni- vem de- al-|
 C4 D4 z8 | z4 A8 G4 | E4 F4 G4 A4 | F4 (A6 GF G4) | A4 A8 G4 | E8 F4 G4- | G4 F4 (E6 DE | %165
w: ba- bor,|et su-|per ni- vem de-|al- ba\- * * *|bor, et su-|per ni- vem|* de- al\- * *|
 F4) D4 E4 F4- | F4 F4 (F6 ED | E8) F4 F4- | F4 E4 C4 D4 | E4 A4 G4 (F4- | F2 ED E4) F8 | %171
w: * ba- bor, de\-|* al- ba\- * *|* bor, et|* su- per ni-|vem de- al- ba\-|* * * * bor.|
 z4 F4 F4 F4 | E8 D4 (F4- | F2 ED E4) (D2 E2 F4- | F2 E2 C2 D2 E4 F4-) | (F2 E2 F4) (D6 E2 | %176
w: Au- di- tu-|i me- o|* * * * da\- * *||* * * bis *|
 F2) D4 F2 F2 G4 G2 | (F3 EDCDE F2) E2 D4 | z2 E4 F2 F4 E2 D2 | (G3 F E2) E2 D2 F2 E2 E2 | %180
w: * gau- di- um et lae-|ti\- * * * * * * ti- am,|gau- di- um et lae-|ti\- * * ti- am: et ex- ul-|
 A4 A2 A2 A2 ^F2 G4 | C2 F4 E2 F8- | F8 _E4 D4- | (D2 A,2 C4) (B,2 A,2 A,4- | A,2 G,F, G,4) A,8 | %185
w: ta- bunt, et ex- ul- ta-|bunt os- sa hu\-|* mi- li\-|* * * a\- * *|* * * * ta,|
 C8 D4 D4 | E4 F4 (G8 | F8) E8 | z4 D4 D4 A4 | G4 (F8 E2 D2 | ^C8) z8 | z16 | z16 | z4 A4 B8- | %194
w: os- sa hu-|mi- li- a\-|* ta,|hu- mi- li-|a- ta. * *||||A- ver\-|
 B4 A4 B6 B2 | B4 A4 (B2 A2 G2 F2 | E4) E4 ^F4 G4- | G4 D4 (D8 | E8) F4 F4- | F4 D4 E8 | F16 | %201
w: * te fa- ci-|em tu- am * * *|* a pec- ca\-|* tis me\-|* is, a|* pec- ca-|tis|
 G8 C8 | z4 B,8 A,4 | (B,6 A,2 G,4) F,4 | C8 F4 F4 | G16 | A16 | z4 A8 G4- | G4 D4 A4 A,4 | %209
w: me- is,|a pec-|ca\- * * tis|me- is: et|o-|mnes|i- ni\-|* qui- ta- tes|
 (B,2 C2 D2 E2 F4) F,4 | (G,2 A,2 B,2 C2 D2 E2 D4- | D2 CB, C4) D4 A4 | A4 A2 A2 G4 G2 F2- | %213
w: me\- * * * * as|de\- * * * * * *|* * * * le, et|o- mnes i- ni- qui- ta\-|
 F2 E4 D4 C2 F4 | E4 E4 F4 A4 | A8 G8 | (E6 D2 C4) C4 | A,16 | A,16 || E16 | F8 D4 G4- | %221
w: * tes me- as de-|le, i- ni- qui-|ta- tes|me\- * * as|de-|le.|Cor|mun- dum cre\-|
 G4 E4 F4 F4 | (E2 D2 E2 F2 G8) | D12 D4 | F16 | G4 G4 F4 E4 | C8 D8 | D4 D4 F4 E4 | A4 G4 G4 D4 | %229
w: * a in me|De\- * * * *|us, cor|mun-|dum cre- a in|me De-|us, cor mun- dum|cre- a in me|
 E8 F4 A4 | G8 A4 A4- | A4 A,4 A,4 A4 | A8 A4 A4 | G6 G2 G4 A4 | B8 z8 | z4 A4 A6 A2 | %236
w: De- us cor|mun- dum cre\-|* a in me|De- us: et|spi- ri- tum re-|ctum,|et spi- ri-|
 G4 A4 D4 G4 | F6 F2 E4 D4 | G8 z4 G4- | G2 G2 F4 G6 G,2 | B,4 A,4 F8 | E8 D4 D4- | D4 F4 E4 D4 | %243
w: tm re- ctum, et|spi- ri- tum re-|ctum in\-|* no- va in vi-|sce- ri- bus|me- is, in|* vi- sce- ri-|
 ^C4 (D6 C=B, C4) | D4 D8 D4 | E4 C4 F8 | D8 z4 E4 | F6 F2 G4 E4- | E4 A6 A2 F4 | %249
w: bus me\- * * *|is. Ne pro-|ji- ci- as|me a|fa- ci- e, a|* fa- ci- e|
 (D2 E2 F2 C2 D2 E2 F2 D2 | E8) D8 | z4 B,4 F6 F2 | F4 D8 (G2 F2 | E2 D2 E4) F4 D4 | F8 D4 E4 | %255
w: tu- * * * * * * *|* a,|et spi- ri-|tum san- ctum *|* * * tu- um|ne au- fe-|
 F4 D4 E2 E4 E2 | ^F4 F2 F2 G3 G G4- | G4 A6 A2 A4 | A2 A4 A4 G2 G4 | z2 G3 G F2 E2 A2 A3 A | %260
w: ras a me. Red- de|mi- hi lae- ti- ti- am,|* red- de mi-|hi lae- ti- ti- am,|red- de mi- hi lae- ti- ti-|
 G2 G2 (FG A4) A2 F2 B2- | B2 A2 G2 F2 G8 | ^F4 F3 F G2 A2 A4 | F4 F4 F6 F2 | E4 G8 G4 | %265
w: am, lae- ti\- * * ti- am sa\-|* lu- ta- ris tu-|i, sa- lu- ta- ris tu-|i: et spi- ri-|tu prin- ci-|
 G8 A4 z2 D2- | D2 D2 C4 (F4 E2 D2 | E8 A8) | z4 D4 E6 E2 | F4 C8 D4 | C4 C8 C4 | %271
w: pa- li con|* fir- ma me, * *||et spi- ri-|tu prin- ci-|pa- li con-|
 (B,2 A,4) G,2 A,4 A,4 | A8 A8 | z4 ^F4 (G2 =F2 D2 E2 | F8) E4 E4 | C8 D4 (D2 E2) | %276
w: fir\- * ma me. Do-|ce- bo,|do- ce\- * * *|* bo i-|ni- quos vi\- *|
 (F2 G2 F4) E4 A4 | (G2 E2 A8) G4 | A8 z8 | z16 | A8 G6 G2 | F4 D4 G8 | z4 D4 F6 F2 | %283
w: * * * as, vi-|as * * tu-|as:||et im- pi-|i ad te,|et im- pi-|
 G4 A4 (D2 E2 F2 G2 | A4) A,4 D4 E4 | A,4 F4 E4 A4- | (A2 GF G4) A4 E4 | G6 G2 C4 D4 | %288
w: i ad te * * *|* con- ver- ten-|tur, con- ver- ten\-|* * * * tur, et|im- pi- i ad|
 C4 A,4 B,4 G,4 | A,4 F8 F4 | (F6 E2 D2 C2 D2 E2 | F8) E16 || z16 | z16 | z16 | A12 A4 | %296
w: te con- ver- ten-|tur, con- ver-|ten\- * * * * *|* tur.||||Li- be-|
 G8 (F6 G2 | A4) A4 G8 | A12 A4 | F4 G4 A4 E4 | F8 D4 E4 | C4 (D6 ^C=B, !courtesy!^C4) | %302
w: ra me *|* de san-|gui- ni-|bus De- us, de|san- gui- ni-|bus De\- * * *|
 D8 z4 =C4 | G4 F4 (F4 E2 D2) | ^C4 (D6 =C2 D2 B,2 | _E4) E4 D4 D4 | =E4 E4 (F6 G2 | %307
w: us, De-|us sa- lu\- * *|* tis * * *|* me- ae, De-|us sa- lu\- *|
 A2 G2 F2 E2 F4) G4 | F8 E8 | z4 z2 D2 E2 F2 G2 A2 | z2 F2 G2 G2 G6 A2 | z2 A2 A2 A2 ^F4 G2 C2 | %312
w: * * * * * tis|me- ae:|et ex- ul- ta- bit,|et ex- ul- ta- bit,|et ex- ul- ta- bit, et|
 G2 G2 F4 E4 E4- | E4 E4 G8 | ^F4 A4 A6 A2 | G4 F4 A8 | ^F12 G4 | G8 A8- | A4 G4 A4 G4 | %319
w: ex- ul- ta- bit lin\-|* gua me-|a ju- sti- ti-|am tu- am.|Do- mi-|ne la\-|* bi- a me-|
 E4 E4 C6 C2 | C16 | z8 z2 C2 C2 C2 | G4 F4 z2 D2 G2 G2 | F4 F4 D4 C4 | D8 F4 A4 | %325
w: a a- pe- ri-|es:|an- nun- ti-|a- bit, an- nun- ti-|a- bit lau- dem|tu- am, an-|
 B2 B2 A4 G4 z2 G2 | G2 G2 G8 F4 | G4 A4 G8 | F4 F6 F2 E4 | E4 F4 E4 D4 | E8 z4 A4- | A4 A4 A4 A4 | %332
w: nun- ti- a- bit, an-|nun- ti- a- bit|lau- dem tu-|am. Quo- ni- am|si vo- lu- is-|ses sa\-|* cri- fi- ci-|
 B4 A4 (G2 F2 E2 F2 | G8) G,4 G4 | (F2 ED E4) F8 | F12 F4 | F8 E8- | E4 E4 (E6 D2 | E2 F2 G4) A8- | %339
w: um, de- dis\- * * *|* sem, de-|dis\- * * * sem,|quo- ni-|am, quo\-|* ni- am *|* * * si|
 A4 F4 G4 A4 | G8 z4 F4- | F4 F4 C6 D2 | (E2 DE F4) D4 G4 | F4 A8 A4 | G6 G2 G4 G4 | G8 E4 F4- | %346
w: * vo- lu- is-|ses sa\-|* cri- fi- ci-|um, * * * de- dis-|sem, sa- cri-|fi- ci- um, de-|dis- sem u\-|
 F2 E2 E4 F4 F4 | D8 C8 | z8 z4 G4 | G6 A2 G4 G4 | E8 z8 | z4 A4 A6 B2 | A4 G4 F4 F4 | %353
w: * ti- que: ho- lo-|cau- stis|non|de- le- cta- be-|ris,|non de- le-|cta- be- ris, non|
 F4 E4 D6 D2 | ^C8 z4 D4- | D4 D4 F4 D4 | (F6 G2 A8) | (A,6 B,2 C2 F,2 F2 G2 | A8) G8 | %359
w: de- le- cta be-|ris. Sa\-|* cri- fi- ci-|um * *|De\- * * * * *|* o|
 z4 G6 G2 G4 | (F6 G2 A4) G4 | F4 A4 G8 | z16 | G8 G4 G4 | G8 A8 | z4 F8 _E4 | D8 D4 D4 | %367
w: spi- ri- tus|con\- * * tri-|bu- la- tus,||con- tri- bu-|la- tus:|cor con-|tri- tum et|
 (B,3 C D3 E F2) G4 D2 | E4 A4 A8 | F4 D3 E (F2 G4 F2) | A16 | z8 z4 D4- | D4 C4 C6 D2 | %373
w: hu\- * * * * mi- li-|a- tum, et|hu- mi- li- a\- * *|tum|De\-|* us non de-|
 B,4 C4 (D2 E2 F2 G2 | A4) A8 G4 | G8 F4 F4- | F4 E4 F8 | z8 z4 A4- | A4 G4 G4 F4 | F6 F2 (E6 D2 | %380
w: spi- ci- es, * * *|* De- us|non de- spi\-|* ci- es,|De\-|* us non de-|spi- ci- es, *|
 E2 F2 G4) z8 | z4 A8 G4 | G4 G4 F6 F2 | E24 || z8 ^F8 | G16 | E8 F4 F4- | F4 E4 F8 | z4 F4 E4 E4 | %389
w: |De- us|non de- spi- ci-|es.|Be-|ni-|gne fac Do\-|* mi- ne|in bo- na|
 G12 F4 | F4 E4 z4 G4 | G4 D4 F8- | F4 F4 E4 E4 | G8 F4 G4 | A16 | z4 B4 A4 F4 | G4 G4 G4 F4- | %397
w: vo- lun-|ta- te, in|bo- na vo\-|* lun- ta- te|tu- a Si-|on,|in bo- na|vo- lun- ta- te|
 F4 D4 E4 A,4 | A,8 z8 | z8 z4 G,4 | G,4 A,8 B,4 | C8 D8 | E8 F4 F4 | G6 G2 A8 | z16 | z4 G8 F4 | %406
w: * tu- a Si-|on:|ut|ae- di- fi-|cen- tur|mu- ri Je-|ru- sa- lem,||mu- ri|
 G4 A8 G4 | A8 z4 A4 | G4 G4 B8 | A8 z4 A4- | A4 G4 A6 A2 | F4 F4 G4 C4 | E4 F4 F8- | F4 D4 D4 D4 | %414
w: Je- ru- sa-|lem. Tunc|ac- ce- pta-|bis sa\-|* cri- fi- ci-|um ju- sti- ti-|ae, ju- sti\-|* ti- ae, ob-|
 F4 F4 F8 | G16 | A12 G4 | G8 E8 | F8 z8 | z16 | z4 G4 G4 G4 | A8 G8 | (F6 E2 D4) E4 | F4 G4 A8 || %424
w: la- ti- o-|nes,|et ho-|lo- cau-|sta:||su- per al-|ta- re|tu\- * * um|vi- tu- los,|
[M:3/1] x24 |[M:3/1] ^F16 G8 | A8 G16 | E8 E8 E8 | F16 E8 | G8 A16 | (A12 G4 F8) | (E8 F8) D8 | %432
w: |tunc im-|po- nent|su- per al-|ta- re|tu- um|vi\- * *|tu\- * los,|
 z8 E8 E8 | ^F8 F16 | G16 F8 | G8 E12 E4 | F8 F16 | E8 F8 F8 | E24 |] %439
w: su- per|al- ta-|re tu-|um vi- tu-|los, tu-|um vi- tu-|los.|
V:3
 z16 | z8 d8- | d4 d4 d4 d4 | f8 (e6 d2 | e4) (f6 e2 d4- | d2 ^c=B !courtesy!^c4) d8 | %6
w: |Mi\-|* se- re- re|me- i *|* De\- * *|* * * * us,|
[M:4/2][K:treble-8] z4 d8 d4 | d4 d4 (_e6 dc | d4) _e4 d8 | c8 z4 B4 | d8 c4 A4- | A4 (G6 FE F4) | %12
w: mi- se-|re- re me\- * *|* i De-|us: se-|cun- dum ma\-|* gnam * * *|
 A16 | (B6 c2 d4) f4 | e4 d4 f4 d4 | e16 | z4 d8 d4 | f8 e8 | c12 c4 | A6 A2 A8- | A8 z4 A4- | %21
w: mi-|se\- * * ri-|cor- di- am tu-|am.|Et se-|cun- dum|mul- ti-|tu- di- nem|* mi\-|
 A4 B4 A6 A2 | F8 G4 G4- | G4 F4 D4 d4- | d4 c4 c4 c4 | c8 c8 | z4 c4 d8 | _e6 d2 c4 c4- | %28
w: * se- ra- ti-|o- num tu\-|* a- rum, mi\-|* se- ra- ti-|o- num,|mi- se-|ra- ti- o- num|
 c2 c2 =B4 c8 | z4 c8 f4- | f4 d4 d4 d4 | (d6 e2 f6 e2 | d4) c4 d8 | e4 A6 A2 A4 | B4 (A6 G2 B4) | %35
w: * tu- a- rum:|de- le|* i- ni- qui-|ta\- * * *|* tem me-|am. Am- pli- us|la- va * *|
 (A6 B2 c2 A2 d4) | d6 d2 d8 | c4 B4 A4 c4- | c4 B4 c4 B4 | A4 A4 F8 | G8 z4 F4- | F4 E4 (F6 G2) | %42
w: me, * * * *|am- pli- us|la- va me ab|* i- ni- qui-|ta- te me-|a, ab|* i- ni\- *|
 A4 G4 (A6 B2 | c4) B4 (c8 | d8) c4 c4 | c4 d2 c4 c2 d4 | c4 (f6 e2 d2 c2 | d4) d4 e8 | %48
w: * qui- ta\- *|* te me\-|* a: et|a pec- ca- to me-|o mun\- * * *|* da me.|
 f6 f2 f4 (f4- | f4 e2 d2 e8) | f4 _e4 d4 c4 | B8 A8 | z8 z4 A4 | (G2 A2 B2 G2 A2 B2 c2 A2) | %54
w: Quo- ni- am i\-||ni- qui- ta- tem|me- am|e-|go * * * * * * *|
 B2 d4 e2 f4 A4- | A4 A6 B2 A4 | G8 A8 | =B4 c8 d4 | G4 G2 G2 A4 d4- | d4 c4 z8 | z4 A8 =B4 | %61
w: * co- gno- sco, e\-|* go co- gno-|sco: et|pec- ca- tum|me- um, et pec- ca\-|* tum,|et pec-|
 c12 d4- | d4 _e4 d4 G4- | G4 A4 =B8 | c8 d8 | c8 d8 | f4 e4 d4 (f4- | f2 ed e4) d4 d4 | %68
w: ca- tum|* me- um, et|* pec- ca-|tum me-|um con-|tra me est sem\-|* * * * per, est|
 (f6 e2 d2 A2 d4) | ^c16 || A12 A4 | c8 (d6 c2 | B2 A2 G2 A2 B4) G4 | d8 c8 | z4 d8 d4 | c8 A6 c2 | %76
w: sem\- * * * *|per.|Ti- bi|so- li *|* * * * * pec-|ca- vi,|ti- bi|so- li pec-|
 B8 f8- | f8 z8 | d12 d4 | c8 =B4 c4 | (=B2 G2 c6 BA B4) | c8 z4 A4 | G4 G4 B8 | (A6 B2 c4) G4 | %84
w: ca- vi,||ti- bi|so- li pec-|ca\- * * * * *|vi, et|ma- lum co-|ram * * te,|
 z8 A8 | G4 G4 B8 | A4 c4 c8 | B8 z4 A4 | G4 G4 B8 | A4 F4 (B2 AG A2 B2 | c8) G8 | z4 d4 d4 d4 | %92
w: et|ma- lum co-|ram te fe-|ci, et|ma- lum co-|ram te fe\- * * * *|* ci,|et ma- lum|
 (c2 B2 A2 G2 A2 B2 c4- | c2 B2 A4) d4 d4 | B8 A8 | z4 d8 e4- | e4 c8 c4 | A4 A4 ^c6 c2 | %98
w: co\- * * * * * *|* * * ram te|fe- ci:|ut ju\-|* sti- fi-|ce- ris in ser-|
 ^c4 c4 d4 (A4- | A2 GF G4) E4 e4- | e4 c4 _e4 d4 | (G2 A2 B2 c2 d2 e2 f4- | f4) f4 d8 | %103
w: mo- ni- bus tu\-|* * * * is, et|* vin- cas cum|ju\- * * * * * *|* di- ca-|
 c8 z4 B4- | B4 B4 A8 | G8 z8 | z8 z4 B4- | B4 A4 c8 | B4 d8 d4 | c6 B2 A4 c4 | B4 d4 (d6 cB | %111
w: ris. Ec\-|* ce e-|nim,|ec-|* ce e-|nim in i-|ni- qui ta- ti-|bus con- ce\- * *|
 c4) A4 c8 | (c6 B2 A4) A4- | A4 A4 G8 | z4 d4 f4 e4 | e4 A4 A4 A4 | d8 c4 c4 | c4 f8 d4 | %118
w: * ptus sum,|con\- * * ce\-|* ptus sum,|con- ce- ptus|sum: et in pec-|ca- tis con-|ce- pit me|
 (f2 ed e4) c8 | A4 d4 z4 d4- | d4 c4 B8 | A4 z4 z8 | z4 c4 d4 e4 | f4 f8 e4 | d4 e4 f4 e4 | %125
w: ma\- * * * ter|me- a. Ec\-|* ce e-|nim,|ec- ce e-|nim ve- ri-|ta- tem di- le-|
 A4 A2 A2 (B2 c2 B2 A2) | =B2 (c4 B2) c8 | z16 | z8 z4 f4 | e4 d4 f4 c4 | d8 c4 d4- | d4 c4 d4 f4 | %132
w: xi- sti, di- le\- * * *|* xi\- * sti:||in-|cer- ta et oc-|cul- ta sa\-|* pi- en- ti-|
 c4 (d6 c2 A2 B2 | c2 A2 =B4) c4 c4- | c4 c4 c4 c4 | (d6 e2 f4) e4 | d4 d4 _e4 d4- | d4 c8 G4 | %138
w: ae tu\- * * *|* * * ae, sa\-|* pi- en- ti-|ae * * tu-|ae ma- ni- fe\-|* sta- sti|
 A4 A4 z8 | z4 d8 d4 | c6 c2 A4 B4 | c4 G8 c4- | c4 A4 c4 d4- | d4 ^c4 d8 | (d8 e8) | ^f16 || d16 | %147
w: mi- hi,|sa- pi-|en- ti- ae tu-|ae ma- ni\-|* fe- sta- sti|* mi- hi,|mi\- *|hi.|A-|
 ^c16 | d16 | d4 d6 d2 (c4- | c4 B2 A2 B4) A4- | (A2 B2 c2 d2 e4) f4 | d4 d8 c4 | B8 c4 A4- | %154
w: sper-|ges|me Do- mi- ne|* * * * hys\-|* * * * * so-|po, et mun-|da- bor: la\-|
 A4 F4 G8 | A8 z4 A4 | c4 B4 A8 | z4 d8 c4 | A4 B4 c4 d4 | G4 (A3 B c4) d4 | z16 | z4 f8 d4 | %162
w: * va- bis|me, la-|va- bis me,|et su-|per ni- vem de-|al- ba\- * * bor,||de- al-|
 f4 e4 z8 | z16 | z4 d8 c4 | A4 B4 c4 d4- | d4 d4 B8 | A8 z8 | z4 A8 G4 | E4 F4 G4 A4 | G4 G4 F8- | %171
w: ba- bor,||et su-|per ni- vem de\-|* al- ba-|bor,|et su-|per ni- vem de-|al- ba- bor.|
 F8 z8 | z8 z4 c4 | c4 c4 B4 A4 | c12 d4- | (d2 c2 A4 B8) | A2 f4 d2 d4 d4 | %177
w: |Au-|di- tu- i me-|o da\-||bis gau- di- um et|
 (d3 e f3 e d2) c4 =B2 | c2 c4 F2 (F3 G A2) B2 | G4 A2 A2 D4 z2 A2 | f2 f2 e4 f2 d2 d2 G2 | %181
w: lae\- * * * * ti- ti-|am, gau- di- um * * et|lae- ti- ti- am: et|ex- ul- ta- bunt, et ex- ul-|
 A4 c4 c4 d4- | d4 c4 B8 | A8 (F6 E2 | D8) E8 | A8 B6 B2 | c4 d4 (G2 A2 B2 c2 | %187
w: ta- bunt os- sa|* hu- mi-|li- a\- *|* ta,|os- sa hu-|mi- li- a\- * * *|
 d2 e2 d6 ^c=B !courtesy!^c4) | d4 f4 f6 e2 | d4 c4 d8 | e4 e4 f8- | f4 e4 f6 f2 | f4 e4 (f6 ed | %193
w: |ta, os- sa hu-|mi- li- a-|ta. A- ver\-|* te fa- ci-|em tu- am * *|
 c4) c4 d4 (d4- | d2 e2 f4) (B2 A2 G2 A2) | (B2 c2 d4 B2 c2) (d4- | d2 ^c=B !courtesy!^c4) d8- | %197
w: * a pec- ca\-|* * * tis * * *|* * * * * me\-|* * * * is,|
 d8 z4 d4- | d4 ^c4 d4 d4 | B8 A8 | z4 d8 d4 | d4 e4 f8 | d8 d8 | d8 c4 B4- | B4 A4 B4 B4 | %205
w: * a|* pec- ca- tis|me- is,|a pec-|ca- tis me-|is, a|pec- ca- tis|* me- is: et|
 (G6 A2 B2 c2 d2 e2 | f8) e8 | z4 f8 e4 | d4 f8 e4- | e4 d8 c4- | c4 (B6 AG A4) | A8 z4 D4 | %212
w: o\- * * * * *|* mnes|i- ni-|qui- ta- tes|* me- as|* de\- * * *|le, de-|
 A8 z4 d4 | c4 B4 A2 A2 d4- | d2 d2 ^c4 d4 (f4- | f2 d2 f4) e4 d4 | c4 c4 A4 A4 | %217
w: le, i-|ni- qui- ta- tes me-|* as de- le, i\-|* * * ni- qui-|ta- tes me- as|
 (F2 E2 D2 E2 F8) | E16 || z8 A8- | A8 B8 | G4 c8 d4- | d4 c4 d8 | B8 A8 | d16 | G8 c4 c4 | %226
w: de\- * * * *|le.|Cor|* mun-|dum cre- a|* in me|De- us,|cor|muun- dum cre-|
 e4 (f6 e2 d2 c2 | B4) B4 (c8 | d8) G8 | z4 c8 f4- | f4 e4 f8- | f4 e4 f4 f4 | e16 | d4 d4 _e6 e2 | %234
w: a in * * *|* me De\-|* us,|cor mun\-|* dum cre\-|* a in me|De-|us: et spi- ri-|
 (d2 c2 B2 A2 B2 c2 d2 e2 | f4) (c6 B2 A2 B2 | c8) B4 d4 | d6 d2 c4 (B2 c2 | d2 e2 d6 c2 B4 | %239
w: tum * * * * * * *|* re\- * * *|* ctum, et|spi- ri- tum re\- *||
 c6 d2 _e4 d2 c2) | d8 z4 d4- | d2 d2 c4 A4 B4 | A6 A2 G8 | A16 | D8 B8 | A4 A8 A4 | B4 G4 c8 | %247
w: |ctum in\-|* no- va in vi-|sce- ri- bus|me-|is, me-|is. Ne pro-|ji- ci- as|
 F8 z4 c4- | c4 f6 f2 d4 | (B2 c2 d2 e2 d2 c2 B4) | A8 z4 D4 | d6 d2 d4 d4 | B8 G8 | %253
w: me a|* fa- ci- e|tu\- * * * * * *|a, et|spi- ri- tum san-|ctum tu-|
 (c2 B2 A2 G2 F4) f4 | (B2 c2 d2 e2 f4) c4 | d4 B4 A8 | A6 A2 G4 d4 | z2 e2 f3 f f2 f4 f2 | %258
w: um * * * * ne|au\- * * * * fe-|ras in me.|Red- de mi- hi|lae- ti- ti- am, red- de|
 (e3 d e2) f4 e2 e3 e | d4 d4 A4 f4 | (d3 c d2) f2 e3 e d4 | z2 d4 c2 _e2 d4 c2 | %262
w: mi\- * * hi lae- ti- ti-|am, red- de mi-|hi * * lae- ti- ti- am,|sa- lu- ta- ris tu-|
 d2 d4 d2 c2 f2 e4 | d4 d4 c6 c2 | c8 d8 | e4 d4 e4 f4 | d4 (e6 d2 d4- | %267
w: i, sa- lu- ta- ris tu-|i: et spi- ri-|tu prin-|ci- pa- li con-|fir- ma * *|
 d2 ^c=B !courtesy!^c4) d4 d4 | =B6 B2 c8- | c4 A8 A4 | A8 G4 E4 | F4 D4 E4 e4 | f8 f8 | %273
w: * * * * me, et|spi- ri- tu|* prin- ci-|pa- li con-|fir- ma me. Do-|ce- bo,|
 z4 d4 =B8 | c4 c4 c8- | c4 A4 A4 A4 | (A6 B2 c2 d2 e4- | e2 de f2 e2 d8) | e4 A4 c6 c2 | %279
w: do- ce-|bo i- ni\-|* quos vi- as|tu\- * * * *||as: et im- pi-|
 d4 e4 A4 d4 | (c6 BA B4) c4 | d4 f4 e6 e2 | d8 z4 d4 | e4 e4 f4 d4 | e8 z8 | z4 A4 c6 c2 | %286
w: i as te con-|ver\- * * * ten-|tur, et im- pi-|i ad|te con- ver- ten-|tur,|et im- pi-|
 d4 e4 A4 c4 | d4 e4 f8 | e4 d8 c4 | d4 A8 d4 | (d6 e2 f6 e2 | d2 c2 d4) ^c16 || z16 | z16 | %294
w: i ad te con-|ver- ten- tur,|con- ver- ten-|tur, con- ver-|ten\- * * *|* * * tur.|||
 d12 d4 | f8 e8 | z16 | e12 e4 | f8 e8 | z4 d8 c4 | A6 A2 =B4 c4 | A16 | z4 d4 d4 f4 | e4 c4 d8 | %304
w: Li- be-|ra me||de san-|ra me|de san-|gui- ni- bus De-|us,|De- us sa-|lu- tis me-|
 e4 f4 B4 B4 | c8 G8 | z4 c8 (f4- | f2 e2 d2 c2 B2 A2 G4) | d8 c4 A4 | B8 A4 z2 f2 | %310
w: ae, sa- lu- tis|me- ae,|De- us||sa- lu- tis|me- ae: et|
 f2 d2 =B4 c4 z2 e2 | d2 d2 ^c4 d4 z2 d2 | d2 B2 d4 ^c2 c4 c2 | ^c8 d4 d4- | d4 f6 f2 f4 | %315
w: ex- ul- ta- bit, et|ex- ul- ta- bit, et|ex- ul- ta- bit lin- gua|me- a ju\-|* sti- ti- am|
 (d8 e8) | d8 d8- | d4 d4 f4 f4- | f4 e4 f4 d4 | c4 c8 A4- | A4 G4 G4 c4- | c2 d4 e2 f4 z4 | %322
w: tu\- *|am. Do\-|* mi- ne la\-|* bi- a me-|a a- pe\-|* ri- es: et|* os me- um|
 z4 z2 f2 f2 f2 d4 | d4 c4 =B4 (c4- | c2 =BA !courtesy!=B4) c4 z2 f2 | B2 f2 f4 e4 e4 | %326
w: an- nun- ti- a-|bit la- dem tu\-|* * * * am, an-|nun- ti- a- bit, an-|
 d4 B4 c6 d2 | e4 f4 d8 | d8 z4 c4- | c2 c2 c4 c4 d4 | c4 =B4 c8 | z4 f8 f4 | f4 f4 d4 (c2 d2 | %333
w: nun- ti- a- bit|lau- dem tu-|am. Quo\-|* ni- am si vo-|lu- is- ses|sa- cri-|fi- ci- um, de\- *|
 e2 f2 e6 d2 d4- | d4) ^c4 d8 | z8 c8- | c4 c4 c8 | c12 c4 | c8 f8- | f4 d4 e4 f4 | c4 _e8 B4 | %341
w: |* dis- sem,|quo\-|* ni- am,|quo- ni-|am si|* vo- lu- is-|ses sa- cri-|
 d6 d2 A4 c4 | (c8 B8) | A2 f4 f2 f4 f4 | e4 d8 c4- | c4 =B4 z4 c4- | c2 c2 c4 F4 F4 | f8 f4 f4 | %348
w: fi- ci- um, de-|dis\- *|sem, sa- cri- fi- ci-|um, de- dis\-|* sem u\-|* ti- que: ho- lo-|cau- stis non|
 e6 d2 c4 d4 | e8 z8 | z4 c4 c6 e2 | d4 e4 f4 d4 | f4 c4 d6 d2 | c8 z4 A4- | A4 A4 B4 G4 | %355
w: de- le- cta- be-|ris,|non de- le-|cta- be- ris, non|de- le- cta- be-|ris. Sa\-|* cri- fi- ci-|
 (B6 c2 d2 e2 f4) | d8 c4 f4- | f2 f2 f4 z8 | f8 d4 _e4 | d8 G4 G4 | (A6 G2 F4) G4 | %361
w: um * * * *|De- o Spi\-|* ri- tus|con- tri- bu-|la- tus, con-|tri\- * * bu-|
 (A2 B2 c2 d2 e4) d4 | f8 e8- | e4 d4 (e8 | d8) f8 | c12 c4 | B8 A8 | G8 d8 | c6 e2 f4 e4 | %369
w: la\- * * * * tus,|con- tri\-|* bu- la\-|* tus:|cor con-|tri- tum|et hu-|mi- li- a- tum|
 z8 z4 d4- | d4 c4 (c8- | c4 B2 A2 B4) B4 | (A6 G2 F4) G4 | G8 z4 d4- | d4 c4 c8 | B4 (B8 A2 G2 | %376
w: De\-|* us non|* * * * de-|spi\- * * ci-|es, De\-|* us non|de- spi\- * *|
 A6) A2 d8 | z4 e8 f4 | d12 d4 | d6 d2 A4 c4- | c4 (B2 A2 B2 c2 d2 e2 | f8) (e6 d2 | %382
w: * ci- es,|De- us|non de-|spi- ci- es, De\-|* us * * * * *|* non *|
 c4 G4) d4 d4- | d4 ^c4 c16 || z8 d8- | d8 d8 | c16 | c8 (c6 B2 | c2 A2 d8) ^c4 | d8 z4 d4 | %390
w: * * de- spi\-|* ci- es.|Be\-|* ni-|gne|fac Do\- *|* * * mi-|ne in|
 c4 c4 _e6 e2 | d4 B4 d8 | A4 d4 c8 | z4 G4 d4 d4 | f6 f2 e4 f4 | (d6 e2 f2 e2 d2 c2 | %396
w: bo- na vo- lun-|ta- te tu-|a Si- on,|in bo- na|vo- lun- ta- te|tu\- * * * * *|
 d4) G4 (G2 A2 B2 c2) | (d2 c2 d6 ^c=B !courtesy!^c4) | d8 z4 c4 | c8 d8 | e4 c4 f4 d4 | %401
w: * a Si\- * * *||on: ut|ae- di-|fi- cen- tur m-|
 f4 (F2 G2 A2 F2 B4) | A6 A2 d4 d4 | d4 e8 f4 | (d6 e2 f8) | d8 z4 d4 | e4 f8 d4 | (f4 e2 d2 e8) | %408
w: ri Je\- * * * *|ru- sa- lem, ut|ae- di- fi-|cen\- * *|tur mu-|ri Je- ru-|sa\- * * *|
 e8 z8 | z16 | z8 z4 f4- | f4 d4 e6 e2 | c4 d8 c4- | c4 B4 A8 | z4 d4 d4 d4 | _e8 d8 | f12 e4 | %417
w: lem.||Sa\-|* cri- fi- ci-|um ju- sti\-|* ti- ae,|ob- la- ti-|o- nes,|et ho-|
 d4 d4 c8- | c8 e8- | e4 f4 d8 | e4 e4 e4 e4 | f8 d4 (d4- | d2 e2 f8) e4 | d6 d2 e8 ||[M:3/1] x24 | %425
w: lo- cau- sta:|* tunc|* im- po-|nent su- per al-|ta- re tu\-|* * * um|vi- tu- los,||
[M:3/1][K:treble-8] d16 d8 | f8 e16 | z16 z8 | c8 c8 c8 | (d12 e4 f8) | e8 f8 c8- | c8 d12 d4 | %432
w: tunc im-|po- nent||su- per al-|ta\- * *|re tu- um|* vi- tu-|
 ^c16 z8 | z16 z8 | d8 d8 d8 | (e12 d4 c8) | c16 d8 | ^c8 d12 d4 | ^c24 |] %439
w: los,||su- per al-|ta\- * *|re tu-|um vi- tu-|los.|
V:4
 z16 | z16 | z16 | A,12 A,4 | A,4 A,4 B,8 | A,8 z8 |[M:4/2] z16 | z8 z4 G,4- | G,4 G,4 G,4 G,4 | %9
w: |||Mi- se-|re- re me-|i,||mi\-|* se- re- re|
 A,4 F,4 G,8 | D,4 D,4 F,8- | F,4 C,4 D,8 | A,,12 A,4 | G,12 F,4 | C4 G,4 D4 B,4 | A,4 A,8 A,4 | %16
w: me- i De-|us: se- cun\-|* dum ma-|gnam mi-|se- ri-|cor- di- am tu-|am. Et se-|
 D8 G,8 | (D,2 E,2 F,2 G,2 A,4) E,4 | F,6 F,2 C,8 | z4 F,8 A,4 | D,6 D,2 A,,8 | D,12 C,4 | %22
w: cun- dum|mul\- * * * * ti-|tu- di- nem,|mul- ti-|tu- di- nem|mi- se-|
 D,4 B,,4 _E,8 | D,4 D,4 B,,8 | A,,8 z4 F,4- | F,4 E,4 F,4 F,4 | C8 B,8 | _E,8 (F,8 | G,8) C,8 | %29
w: ra- ti- o-|num tu- a-|rum, mi\-|* se- ra- ti-|o- num|tu- a\-|* rum:|
 C8 F,8 | B,8 (G,6 A,2 | B,2 C2 D8) D,4 | G,4 A,4 B,8 | A,8 D,6 D,2 | D,8 C,4 (B,,2 C,2 | %35
w: de- le|i- ni\- *|* * * qui-|ta- tem me-|am. Am- pli-|us la- va *|
 D,2 E,2 F,2 G,2 A,2 F,2 G,4) | D,8 z8 | z8 z4 A,4- | A,4 G,4 A,4 G,4 | F,6 E,2 D,8 | C,8 z8 | %41
w: |me|ab|* i- ni- qui-|ta- te me-|a,|
 z8 z4 F,4- | F,4 E,4 (F,6 G,2 | A,4) G,4 F,4 A,4 | G,8 C,4 C,4 | F,4 D,2 A,4 C2 B,4 | F,8 B,8- | %47
w: ab|* i- ni\- *|* qui- ta- te|me- a: et|a- pec- ca- to me-|o mun\-|
 B,4 B,4 A,8 | F,6 F,2 F,8 | C16 | B,4 _E,4 B,4 F,4 | G,8 D,8 | z16 | z4 G,4 (F,2 G,2 A,2 F,2) | %54
w: * da me.|Quo- ni- am|i-|ni- qui- ta- tem|me- am||e- go * * *|
 G,2 D,2 G,4 F,4 F,4 | (D,3 E, F,2 E,2 D,2) B,,2 F,4 | C,8 z8 | z16 | E,8 F,4 G,4- | G,4 A,4 B,8 | %60
w: * co- gno- sco, e-|go * * * * co- gno-|sco:||et pec- ca\-|* tum me-|
 A,8 D,8 | E,4 F,8 D,4 | G,16 | C,8 z8 | z4 F,8 G,4 | A,4 F,4 B,8 | A,8 z4 D,4- | %67
w: um. et|pec- ca- tum|me-|um,|et pec-|ca- tum me-|um con\-|
 D,4 ^C,4 D,4 D,4 | D,16 | A,,16 || z16 | z16 | z16 | z4 D,4 A,8 | G,8 z8 | A,12 A,4 | %76
w: * tra me est|sem-|per.||||pec- ca-|vi,|ti- bi|
 G,8 (F,2 E,2 D,4-) | (D,2 E,2 F,2 G,2 A,4) F,4 | G,8 D,8 | z8 G,8- | G,4 E,4 G,8 | A,6 =B,2 ^C8 | %82
w: so- li * *|* * * * * pec-|ca- vi,|ti\-|* bi so-|li pec- ca-|
 D8 z8 | F,8 E,4 E,4 | G,8 F,4 D,4 | D8 G,8 | z4 A,4 A,4 A,4 | (G,2 F,2 D,2 E,2 F,8) | %88
w: vi,|et ma- lum|co- ram te|fe- ci,|et ma- lum|co\- * * * *|
 C,4 C,4 G,8 | D,8 z4 D,4 | C,4 C,4 _E,8 | D,4 B,,4 B,8 | (F,2 G,2 A,2 B,2 C4) C,4 | F,12 D,4 | %94
w: ram te fe-|ci, et|ma- lum co-|ram te fe-|ci, * * * * co-|ram te|
 D8 ^C8 | D8 G,4 =C4- | C4 F,4 C,8 | D,8 A,,6 A,,2 | A,,4 A,,4 D,8 | B,,8 A,,8 | A,8 (G,6 A,2) | %101
w: fe- ci:|ut ju- sti\-|* fi- ce-|ris in ser-|mo- ni- bus|tu- is,|et vin\- *|
 (B,12 A,2 G,2 | F,8) G,4 G,4 | A,4 F,4 B,8 | B,,8 z8 | z4 B,8 B,4 | A,8 G,4 G,4- | %107
w: |* cas cum|ju- di- ca-|ris.|Ec- ce|e- nim in|
 G,4 F,4 _E,4 C,4 | G,6 G,2 D,8 | z4 F,8 E,4 | (G,6 A,2 B,8) | F,4 F,4 C,4 F,4- | F,4 C,4 D,6 D,2 | %113
w: * i- ni- qui-|ta- ti- bus,|ec- ce|e\- * *|nim in i- ni\-|* qui- ta- ti-|
 A,,4 A,4 (B,6 C2) | D4 B,4 A,8- | A,8 z4 F,4 | F,4 G,4 A,8 | F,4 F,8 G,4 | A,4 E,4 F,4 C,4 | %119
w: bus con- ce\- *|* ptus sum:|* et|in pec- ca-|tis con- ce-|pit me ma- ter|
 (D,6 C,2 B,,8) | A,,8 z8 | z4 D4 C4 B,4 | (A,8 G,8) | z4 D8 C4 | =B,4 C4 (F,2 G,2 A,2 G,2 | %125
w: me\- * *|a.|Ec- ce e-|nim *|ve- ri-|ta- tem di\- * * *|
 F,2 E,2 D,4) (G,2 F,2 G,2 A,2) | (G,2 C,2) G,4 C,8 | z4 C4 B,4 A,4 | B,4 C4 D8 | C4 B,8 A,4 | %130
w: * * * le\- * * *|* * xi- sti:|in- cer- ta|et oc- cul-|ta sa- pi-|
 B,6 B,2 F,4 D,4 | A,8 B,6 B,2 | A,4 G,4 (D,2 E,2 F,2 G,2 | A,2 F,2 G,4) C,8 | F,8 z8 | z16 | z16 | %137
w: en- ti- ae tu-|ae, sa- pi-|en- ti- ae * * *|* * * tu-|ae,|||
 z16 | z4 A,8 A,4 | G,6 G,2 ^F,4 G,4 | C,8 z8 | C,16 | F,12 D,4 | A,8 G,8 | (D,8 A,8) | D,16 || %146
w: |sa- pi-|en- ti- ae tu-|ae|ma-|ni- fe-|sta- sti|mi\- *|hi.|
 z16 | A,16 | G,8 B,8 | B,,8 F,6 F,2 | C,4 C,4 (D,2 E,2 F,2 G,2) | A,12 F,4 | B,12 A,4 | G,8 F,8 | %154
w: |A-|sper- ges|me Do- mi-|ne hys- so\- * * *|* po,|et mun-|da- bor:|
 D,8 C,4 B,,4 | A,,8 z8 | z8 z4 A,4 | F,4 G,4 A,8 | z8 z4 D4- | D4 C4 A,4 B,4 | C4 D4 G,4 (D4- | %161
w: la- va- bis|me,|la-|va- bis me,|et|* su- per ni-|vem de- al- ba\-|
 D2 C2 B,2 A,2 B,8) | A,8 z8 | z4 A,8 G,4 | E,4 F,4 G,4 A,4 | F,4 G,4 C,4 B,,4 | %166
w: |bor,|et su-|per ni- vem de-|al- ba- bor, de-|
 (B,6 C2 D2 C2 D4- | D4) ^C4 D4 D,4- | D,4 C,4 A,,4 B,,4 | C,4 D,4 E,4 F,4 | C,8 z4 C4 | %171
w: al\- * * * *|* ba- bor, et|* su- per ni-|vem de- al- ba-|bor. Au-|
 C4 C4 B,4 (A,4- | A,2 B,2 C4) G,4 F,4 | C,8 z4 F,4 | F,4 F,4 E,4 D,4 | F,8 G,8 | %176
w: di- tu- i me\-|* * * o da-|bis, au-|di- tu- i me-|o da-|
 F,4 B,6 G,2 (G,3 A, | B,C D4) D,4 E,2 F,2 G,2 | C,4 z4 z8 | z8 z2 D2 ^C2 C2 | %180
w: bis ga- di- um *|* * * et lae- ti- ti-|am:|et ex- ul-|
 D4 A,4 z2 D,2 G,2 G,2 | F,4 C,4 F,8- | F,8 G,8 | F,8 D,6 C,2 | B,,8 A,,8 | z16 | z16 | z8 A,8 | %188
w: ta- bunt, et ex- ul-|ta- bunt os\-|* sa|hu- mi- li-|a- ta,|||os-|
 B,12 F,4 | G,4 A,4 B,8 | A,4 A,4 D8- | D4 ^C4 D6 D2 | A,4 C4 D4 (D,2 E,2 | F,2 G,2 A,4) (G,6 A,2 | %194
w: sa hu-|mi- li- a-|ta. A- ver\-|* te fa- ci-|em tu- am a *|* * * pec\- *|
 B,2 C2 D4) G,8- | G,4 ^F,4 G,8 | A,8 z4 G,4- | G,4 ^F,4 G,4 B,4 | A,8 D,8 | z4 D8 ^C4 | %200
w: * * * ca\-|* tis me-|is, a|* pec- ca- tis|me- is,|a pec-|
 D6 C2 (B,6 A,2) | G,8 F,8 | z4 G,8 F,4 | (G,6 F,2 _E,4) D,4 | C,8 B,,8 | z4 B,4 (G,2 A,2 B,2 G,2 | %206
w: ca- tis me\- *|* is,|a pec-|ca\- * * tis|me- is:|et o\- * * *|
 D8) A,8 | D8 C8 | B,8 A,8 | G,8 F,4 F,4 | _E,8 D,8 | z8 z4 D4- | D4 C8 B,4 | A,4 G,4 F,4 D,4 | %214
w: * mnes|i- ni-|qui- ta-|tes me- as|de- le,|i\-|* ni- qui-|ta- tes me- as|
 A,8 D,8 | F,8 C,4 G,4 | A,4 E,4 F,4 C,4 | D,16 | A,,16 || A,16 | D,8 G,8 | C,8 F,4 D,4 | %222
w: de- le,|i- ni- qui-|ta- tes me- as|de-|le.|Cor|mun- dum|cre- a in|
 A,8 G,8- | G,8 D,8 | z16 | z8 A,8- | A,8 B,8 | G,8 A,8 | ^F,4 G,8 =B,4 | C8 F,8 | z4 C,4 F,8 | %231
w: me De\-|* us,||cor|* mun-|dum cre-|a in me|De- us,|cor mun-|
 D,4 ^C,4 D,8 | A,12 A,4 | =B,8 C8 | G,8 z8 | z4 F,4 F,6 F,2 | E,4 F,4 G,8 | z8 z4 G,4 | %238
w: dum cre- a|in me|De- *|us:|et spi- ri-|tum re- ctum,|et|
 G,6 G,2 F,4 G,4 | A,8 z4 G,4- | G,2 G,2 F,4 D,4 D,4 | A,6 A,2 ^F,4 G,4 | D,8 z8 | z16 | z16 | %245
w: spi- ri- tum re-|ctum in\-|* no- va in vi-|sce- ri- bus me-|is.|||
 z16 | z16 | z16 | z16 | z16 | z16 | z16 | z16 | z16 | z16 | z16 | D,6 D,2 D4 G,2 G,2 | %257
w: |||||||||||Red- de mi- hi lae-|
 C3 C F,4 z2 D,4 D,2 | A,4 A,2 F,4 (C,3 D,E,F, | G,3) G, D,2 D4 ^C2 D4 | %260
w: ti- ti- am, red- de|mi- hi lae- ti\- * * *|* ti- am, red- de mi-|
 G,4 z2 D,2 A,3 A, D,2 G,2- | G,2 F,2 B,2 A,2 (G,3 F, _E,4) | D,8 z4 A,4 | B,6 B,2 F,8 | %264
w: hi lae- ti- ti- am sa\-|* lu- ta- ris tu\- * *|i: et|spi- ri- tu,|
 z4 C,4 G,6 G,2 | C4 =B,4 C4 D4 | G,4 C4 D4 B,4 | A,8 D,8 | G,6 G,2 C,8 | F,12 D,4 | F,8 C,4 C,4 | %271
w: et spi- ri-|tu prin- ci- pa-|li con- fir- ma|me, et|spi- ri- tu|prin- ci-|pa- li con-|
 D,4 B,,4 A,,8 | z4 D,4 D8- | D8 G,4 G,4 | F,8 C,4 C,4 | F,8 D,4 D,4- | (D,2 E,2 F,2 G,2 A,6 B,2 | %277
w: fir- ma me.|Do- ce\-|* bo, do-|ce- bo i-|ni- quos vi\-||
 C4) D4 B,8 | A,8 z4 A,4 | G,6 G,2 F,4 D,4 | A,8 z8 | z4 D4 C6 C2 | B,4 G,4 D4 D4 | C8 B,8 | %284
w: * as tu-|as: et|im- pi- i ad|te,|et im- pi-|i ad te con-|ver- ten-|
 A,4 A,4 G,4 E,4 | D,8 z8 | z8 z4 A,4 | G,6 G,2 F,4 D,4 | A,4 ^F,4 G,4 E,4 | D,8 D,8- | %290
w: tur, con- ver- ten-|tur,|et|im- pi- i ad|te con- ver- ten-|tur, con\-|
 D,4 D,4 D,8- | D,8 A,16 || A,12 A,4 | B,8 A,4 D4- | D4 D,4 (G,2 A,2 B,2 C2 | D4) D4 (A,6 B,2 | %296
w: * ver- ten\-|* tur.|Li- be-|ra me de|* san- gui\- * * *|* ni- bus *|
 C4) G,4 (D6 CB, | A,8) z8 | A,12 A,4 | B,8 A,8 | F,6 F,2 G,4 C,4 | F,4 D,4 A,,4 A,4 | B,12 F,4 | %303
w: * De- us, * *||li- be-|ra me|de san- gui- ni-|bus De- us, De-|us sa-|
 G,4 A,4 B,8 | A,4 D,4 G,8 | C,4 C8 =B,4 | C8 F,8 | z16 | z16 | z8 z2 A,2 G,2 F,2 | %310
w: lu- tis me-|ae, De- us|sa- lu- tis|me- ae:|||et ex- ul-|
 B,4 G,4 z2 C2 B,2 A,2 | D4 A,4 z2 D,2 E,2 F,2 | G,4 D,4 A,8- | A,4 A,4 G,8 | D,4 D,4 D6 D2 | %315
w: ta- bit, et ex- ul-|ta- bit, et ex- ul-|ta- bit lin\-|* gua me-|a ju- sti- ti-|
 B,8 A,8 | D,4 D8 G,4 | G,8 F,8- | F,4 C4 F,4 G,4 | A,4 E,4 F,8- | F,4 C,4 C,4 C,4 | F,4 G,4 F,8 | %322
w: am tu-|am. Do- mi-|ne la\-|* bi- a me-|a a- pe\-|* ri- es: et|os me- um|
 z4 z2 D2 D2 D2 (G,3 A, | B,4) F,4 G,4 A,4 | G,8 F,8 | z2 B,2 F,2 F,2 C4 C,2 C,2 | %326
w: an- nun- ti- a\- *|* bit lau- dem|tu- am,|an- nun- ti- a- bit, an-|
 G,6 G,2 E,4 F,4 | C,4 F,4 G,8 | D,8 z4 A,4- | A,2 A,2 A,4 A,4 B,4 | A,4 G,4 A,8 | z4 D8 D4 | %332
w: nun- ti- a- bit|lau- dem tu-|am. Quo\-|* ni- am si vo-|lu- is- ses|sa- cri-|
 D4 D4 =B,4 C4 | (C,2 D,2 E,2 F,2 G,2 A,2 B,2 G,2 | A,8) D,8 | F,12 F,4 | F,8 C,8- | C,4 C,4 C,8 | %338
w: fi- ci- um, de-|dis\- * * * * * * *|* sem,|quo- ni-|am, quo\-|* ni- am|
 z16 | z16 | z16 | z8 z4 A,4- | A,4 F,4 G,6 G,2 | (D,6 E,2 F,2 G,2 A,2 F,2 | C4) =B,4 C8 | %345
w: |||sa\-|* cri- fi- ci-|um, * * * * *|* de- dis-|
 G,8 z4 F,4- | F,2 C,2 C,4 C4 C4 | B,8 F,4 F,4 | A,6 B,2 A,4 G,4 | C8 z8 | z4 A,4 A,6 C2 | %351
w: sem u\-|* ti- que: ho- lo-|cau- stis non|de- le- cta- be-|ris,|non de- le-|
 =B,4 C4 D8 | z8 z4 D,4 | F,4 C,4 D,6 D,2 | A,,8 z8 | z8 z4 D,4- | D,4 D,4 F,4 D,4 | %357
w: cta- be- ris,|non|de- le- cta- be-|ris.|Sa\-|* cri- fi- ci-|
 (F,6 G,2 A,4) B,4 | F,8 G,8- | G,4 G,4 E,4 E,4 | F,12 E,4 | F,8 G,8 | D8 C8- | C4 =B,4 C8 | %364
w: um * * De-|o spi\-|* ri- tus con-|tri- bu-|la- tus,|con- tri\-|* bu- la-|
 G,8 F,8- | F,4 F,4 C,8 | D,8 D,8 | D4 B,6 G,2 B,4 | A,8 z4 A,4 | D4 B,6 G,2 B,4 | A,8 z4 A,4- | %371
w: tus: cor|* con- tri-|tum et|hu- mi- li- a-|tum, et|hu- mi- li- a-|tum De\-|
 A,4 G,4 G,8 | F,4 (F,8 _E,2 D,2 | _E,4) E,4 D,8 | z16 | z4 D8 C4 | C8 B,4 (B,4- | %377
w: * us non|de- spi\- * *|* ci- es,||De- us|non de- spi\-|
 B,4 A,2 G,2 A,4) F,4 | (G,6 F,E, D,8- | D,8) z4 A,4- | A,4 G,4 G,8 | (F,8 C,8) | (C,8 D,6) D,2 | %383
w: * * * * ci-|es, * * *|* De\-|* us non|de\- *|spi\- * ci-|
 A,,24 || z16 | G,16 | A,8 F,8 | C,8 F,8- | F,4 D,4 A,4 A,4 | G,4 G,4 B,4 B,4 | A,6 B,2 C8 | %391
w: es.||Be-|ni- gne|fac Do\-|* mi- ne in|bo- na vo- lun-|ta- te tu-|
 G,8 z4 (D,4- | D,2 E,2 F,2 G,2 A,8) | G,8 z4 G,4 | D4 D4 C4 D4 | B,4 G,4 A,4 B,4 | %396
w: a Si\-||on, in|bo- na vo- lun-|ta- te tu- a|
 (G,2 A,2 B,2 C2 D6 C2) | B,8 A,8 | D,12 E,4- | E,4 F,8 G,4 | E,4 F,8 G,4 | A,8 D,4 D4- | %402
w: Si\- * * * * *|* on:|ut ae\-|* di- fi-|cen- tur mu-|ri Je- ru\-|
 D4 C4 B,4 B,4 | B,4 C8 D4 | (G,2 A,2 B,2 C2 D8) | G,8 D8 | C4 A,4 B,6 B,2 | A,16 | C8 G,4 G,4 | %409
w: * sa- lem, ut|ae- di- fi-|cen\- * * * *|tur mu-|ri Je- ru- sa-|lem.|Tunc ac- ce-|
 D8 A,8 | z4 C8 A,4 | B,6 B,2 G,4 (A,4- | A,2 G,2 F,2 E,2 D,4) F,4- | F,4 G,4 D,8 | z4 D,4 D,4 D4 | %415
w: pta- bis|sa- cri-|fi- ci- um ju\-|* * * * * sti\-|* ti- ae,|ob- la- ti-|
 C8 G,8 | F,12 C,4 | G,8 C,8 | F,8 C8 | A,4 D8 G,4 | C8 C4 C4 | F,8 G,4 (G,2 A,2 | B,2 C2 D8) C4 | %423
w: o- nes,|et ho-|lo- cau-|sta: tunc|im- po- nent|su- per al-|ta- re tu\- *|* * * um|
 B,6 B,2 A,8 ||[M:3/1] x24 |[M:3/1] D,16 G,8 | F,8 C,16 | C8 C8 C8 | (F,12 G,4 A,8) | G,8 D,16 | %430
w: vi- tu- los,||tunc im-|po- nent|su- per al-|ta\- * *|re tu-|
 (A,4 G,4 F,4 G,4 A,4 B,4 | C8) B,12 B,4 | A,16 z8 | D8 D8 D8 | G,16 D8 | (C12 B,4 A,4 G,4 | %436
w: um * * * * *|* vi- tu-|los,|su- per al-|ta- re|tu\- * * *|
 F,12 E,4 D,8) | A,8 D,12 D,4 | A,24 |] %439
w: |um vi- tu-|los.|

